static/images/pieces/synochess/xq/bC.svg

<svg height="92" width="92" xmlns="http://www.w3.org/2000/svg"><g><g fill="#1f1a17" transform="matrix(-.65805252678 0 0 .55105634332 814.7840154208 -130.7648690592)"><g stroke="#1f1a17" stroke-miterlimit="10" transform="matrix(.91849155 -.04088349 .02866942 .91849155 95.269582 54.832886)"><path d="m1213.6335 288.03625-92.5944 36.18456s-8.0242 8.93392-2.8931 21.42532l.063.30499.063.30498c4.9395 12.5585 16.4998 12.34665 16.4998 12.34665 37.098-28.13428 66.1489-38.4485 87.024-50.31774-.192-4.06467-1.8458-7.47907-2.8249-11.1936-1.3824-3.19489-2.9322-6.31529-5.3374-9.05516z" stroke-width="2.6533"/><ellipse cx="1017.132" cy="677.90155" rx="3.753881" ry="3.661743" stroke-width="3.0061" transform="matrix(.95110508 -.30886749 .22204229 .97503704 0 0)"/></g><path d="m1188.053 314.76933-18.8449 5.57175-10.9147 20.92036-8.0938.86128c-16.1431 26.71247-25.0217 28.93186-41.2475 19.47896 18.33-6.79184 27.9258-27.84095 38.5459-46.51534z" stroke="#1f1a17" stroke-linecap="square" stroke-width="1.8316"/><path d="m34.990234 39.226562a17.842211 17.84221 85.775134 0 0 -1.419922.06836 17.842211 17.84221 85.775134 0 0 -16.193359 19.349609 17.842211 17.84221 85.775134 0 0 19.349609 16.195313 17.842211 17.84221 85.775134 0 0 16.19336-19.34961 17.842211 17.84221 85.775134 0 0 -17.929688-16.263672zm.158204 6.09961a-11.667152 11.667152 0 0 1 11.667968 11.667969-11.667152 11.667152 0 0 1 -11.667968 11.666015-11.667152 11.667152 0 0 1 -11.667969-11.666015-11.667152 11.667152 0 0 1 11.667969-11.667969z" transform="matrix(-1.5196355 0 0 1.8146965 1238.1747 237.29855)"/><g stroke="#1f1a17" stroke-linecap="square"><path d="m-684.76074 1132.5303h2.920022v41.437584h-2.920022z" stroke-width="2.22108" transform="matrix(-.62961158 .77691007 .65434208 .75619868 0 0)"/><path d="m-1155.4326-703.56848h2.902706v41.684681h-2.902706z" stroke-width="2.22107" transform="matrix(-.65516628 -.75548471 -.62877406 .77758805 0 0)"/><path d="m343.79016 1165.2843h3.156975v37.732437h-3.156975z" stroke-width="2.20377" transform="matrix(.0023305 .99999728 .99999448 -.00332335 0 0)"/><path d="m-1184.9684 323.77573h2.643678v45.058598h-2.643678z" stroke-width="2.20377" transform="matrix(-.99998924 .00463819 .00325253 .99999471 0 0)"/></g></g><g fill="#fff"><path d="m11.706099 19.768474 1.412258-1.872553 55.282852 20.400544c2.731671 3.252536 2.365337 5.472402 2.342942 7.806917-.707496-.400091-2.266476-6.230598-3.897249-6.783189-23.111055-7.831236-37.850159-15.000491-51.934061-19.042856-1.109028-.318313-2.11215-.210049-3.206742-.508863z"/><path d="m53.913951 44.424321h4.790784l3.575213 5.434321c-1.525424-1.048728-3.529389-3.25803-4.361759-4.07574-3.289059-.684847-5.770383-.123285-8.723517-1.644598z"/></g></g></svg>

<?xml version="1.0" encoding="UTF-8" standalone="no"?>
<svg
   xmlns:dc="http://purl.org/dc/elements/1.1/"
   xmlns:cc="http://creativecommons.org/ns#"
   xmlns:rdf="http://www.w3.org/1999/02/22-rdf-syntax-ns#"
   xmlns:svg="http://www.w3.org/2000/svg"
   xmlns="http://www.w3.org/2000/svg"
   xmlns:sodipodi="http://sodipodi.sourceforge.net/DTD/sodipodi-0.dtd"
   xmlns:inkscape="http://www.inkscape.org/namespaces/inkscape"
   width="92"
   height="92"
   id="svg2"
   version="1.1"
   inkscape:version="1.0 (4035a4fb49, 2020-05-01)"
   sodipodi:docname="bC.svg">
  <metadata
     id="metadata12">
    <rdf:RDF>
      <cc:Work
         rdf:about="">
        <dc:format>image/svg+xml</dc:format>
        <dc:type
           rdf:resource="http://purl.org/dc/dcmitype/StillImage" />
        <dc:title />
      </cc:Work>
    </rdf:RDF>
  </metadata>
  <defs
     id="defs10">
    <filter
       height="1.5"
       width="1.5"
       y="0"
       x="0"
       id="f1"
       color-interpolation-filters="sRGB">
      <feOffset
         id="feOffset3039"
         dy="0"
         dx="1"
         in="SourceAlpha"
         result="offOut" />
      <feGaussianBlur
         id="feGaussianBlur3041"
         stdDeviation="1"
         in="offOut"
         result="blurOut" />
      <!--
      <feBlend in="SourceGraphic" in2="blurOut" mode="normal" />
-->
    </filter>
    <linearGradient
       y2="1"
       x2="0"
       y1="0"
       x1="0"
       id="grad1">
      <stop
         id="stop3034"
         style="stop-color:rgb(255,255,255);stop-opacity:0.6"
         offset="20%" />
      <stop
         id="stop3036"
         style="stop-color:rgb(220,0,0);stop-opacity:0.5"
         offset="50%" />
    </linearGradient>
    <linearGradient
       y2="1"
       x2="0"
       y1="0"
       x1="0"
       id="grad0">
      <stop
         id="stop3029"
         style="stop-color:rgb(0,0,0);stop-opacity:0.3"
         offset="20%" />
      <stop
         id="stop3031"
         style="stop-color:rgb(0,0,0);stop-opacity:0.6"
         offset="100%" />
    </linearGradient>
    <inkscape:path-effect
       effect="mirror_symmetry"
       start_point="274.21267,350.55066"
       end_point="273.50284,477.30227"
       center_point="273.85776,413.92646"
       id="path-effect4557-0-4"
       is_visible="true"
       mode="free"
       discard_orig_path="false"
       fuse_paths="true"
       oposite_fuse="false" />
    <filter
       style="color-interpolation-filters:sRGB;"
       inkscape:label="Drop Shadow"
       id="filter19100">
      <feFlood
         flood-opacity="1"
         flood-color="rgb(91,93,90)"
         result="flood"
         id="feFlood19090" />
      <feComposite
         in="flood"
         in2="SourceGraphic"
         operator="in"
         result="composite1"
         id="feComposite19092" />
      <feGaussianBlur
         in="composite1"
         stdDeviation="0"
         result="blur"
         id="feGaussianBlur19094" />
      <feOffset
         dx="0"
         dy="4"
         result="offset"
         id="feOffset19096" />
      <feComposite
         in="SourceGraphic"
         in2="offset"
         operator="over"
         result="composite2"
         id="feComposite19098" />
    </filter>
    <clipPath
       clipPathUnits="userSpaceOnUse"
       id="clipPath4506">
      <rect
         style="opacity:1;fill:#d40000;fill-opacity:1;stroke:#000000;stroke-width:0.19755;stroke-linecap:square;stroke-linejoin:miter;stroke-miterlimit:4;stroke-dasharray:none;stroke-opacity:1;paint-order:normal"
         id="rect4508"
         width="33.686436"
         height="15.466102"
         x="7.6271186"
         y="3.6016948" />
    </clipPath>
    <linearGradient
       id="0-9"
       x1="21.190001"
       y1="37.551998"
       x2="77.739998"
       y2="37.429001"
       gradientUnits="userSpaceOnUse">
      <stop
         stop-color="#fff"
         id="stop4569" />
      <stop
         offset="1"
         stop-color="#fff"
         stop-opacity="0"
         id="stop4571" />
    </linearGradient>
    <linearGradient
       gradientTransform="translate(-1.5971249,48.408736)"
       id="0-4"
       x1="21.253"
       y1="37.591999"
       x2="77.639999"
       y2="37.469002"
       gradientUnits="userSpaceOnUse">
      <stop
         stop-color="#fff"
         id="stop5894" />
      <stop
         offset="1"
         stop-color="#fff"
         stop-opacity="0"
         id="stop5896" />
    </linearGradient>
  </defs>
  <sodipodi:namedview
     pagecolor="#ffffff"
     bordercolor="#666666"
     borderopacity="1"
     objecttolerance="10"
     gridtolerance="10"
     guidetolerance="10"
     inkscape:pageopacity="0"
     inkscape:pageshadow="2"
     inkscape:window-width="1920"
     inkscape:window-height="1017"
     id="namedview8"
     showgrid="false"
     inkscape:zoom="2.6222222"
     inkscape:cx="184.37731"
     inkscape:cy="84.416628"
     inkscape:window-x="1912"
     inkscape:window-y="-8"
     inkscape:window-maximized="1"
     inkscape:current-layer="layer2"
     fit-margin-top="0"
     fit-margin-left="0"
     fit-margin-right="0"
     fit-margin-bottom="0"
     inkscape:pagecheckerboard="false"
     inkscape:document-rotation="0" />
  <g
     inkscape:groupmode="layer"
     id="layer1"
     inkscape:label="Background"
     style="display:inline" />
  <g
     inkscape:groupmode="layer"
     id="layer2"
     inkscape:label="Symbol"
     style="display:inline">
    <g
       id="g5204"
       transform="matrix(-1.550944,0,0,1.550944,1310.2475,-391.02599)">
      <g
         transform="matrix(0.42429161,0,0,0.35530383,319.4593,167.8082)"
         id="g4916">
        <g
           id="g873"
           transform="matrix(0.91849155,-0.04088349,0.02866942,0.91849155,95.269582,54.832886)">
          <path
             id="path47"
             d="m 1213.6335,288.03625 -92.5944,36.18456 c 0,0 -8.0242,8.93392 -2.8931,21.42532 l 0.063,0.30499 0.063,0.30498 c 4.9395,12.5585 16.4998,12.34665 16.4998,12.34665 37.098,-28.13428 66.1489,-38.4485 87.024,-50.31774 -0.192,-4.06467 -1.8458,-7.47907 -2.8249,-11.1936 -1.3824,-3.19489 -2.9322,-6.31529 -5.3374,-9.05516 z"
             style="fill:#1f1a17;fill-opacity:1;stroke:#1f1a17;stroke-width:2.6533;stroke-miterlimit:10;stroke-opacity:1"
             inkscape:connector-curvature="0"
             sodipodi:nodetypes="ccccccccc" />
          <ellipse
             transform="matrix(0.95110508,-0.30886749,0.22204229,0.97503704,0,0)"
             ry="3.6617434"
             rx="3.753881"
             stroke-miterlimit="10"
             cx="1017.132"
             cy="677.90155"
             id="circle53"
             style="fill:#1f1a17;fill-opacity:1;stroke:#1f1a17;stroke-width:3.0061;stroke-miterlimit:10;stroke-opacity:1" />
        </g>
        <path
           style="opacity:1;fill:#1f1a17;fill-opacity:1;stroke:#1f1a17;stroke-width:1.8316;stroke-linecap:square;stroke-linejoin:miter;stroke-miterlimit:4;stroke-dasharray:none;stroke-opacity:1;paint-order:normal"
           d="m 1188.053,314.76933 -18.8449,5.57175 -10.9147,20.92036 -8.0938,0.86128 c -16.1431,26.71247 -25.0217,28.93186 -41.2475,19.47896 18.33,-6.79184 27.9258,-27.84095 38.5459,-46.51534 z"
           id="rect875"
           inkscape:connector-curvature="0"
           sodipodi:nodetypes="ccccccc" />
        <path
           transform="matrix(-1.5196355,0,0,1.8146965,1238.1747,237.29855)"
           d="M 34.990234 39.226562 A 17.842211 17.84221 85.775134 0 0 33.570312 39.294922 A 17.842211 17.84221 85.775134 0 0 17.376953 58.644531 A 17.842211 17.84221 85.775134 0 0 36.726562 74.839844 A 17.842211 17.84221 85.775134 0 0 52.919922 55.490234 A 17.842211 17.84221 85.775134 0 0 34.990234 39.226562 z M 35.148438 45.326172 A -11.667152 11.667152 0 0 1 46.816406 56.994141 A -11.667152 11.667152 0 0 1 35.148438 68.660156 A -11.667152 11.667152 0 0 1 23.480469 56.994141 A -11.667152 11.667152 0 0 1 35.148438 45.326172 z "
           style="opacity:1;fill:#1f1a17;fill-opacity:1;stroke:none;stroke-width:1.2;stroke-linecap:square;stroke-linejoin:bevel;stroke-miterlimit:4;stroke-dasharray:none;stroke-opacity:1;paint-order:normal"
           id="path869" />
        <rect
           style="display:inline;opacity:1;fill:#1f1a17;fill-opacity:1;stroke:#1f1a17;stroke-width:2.22108;stroke-linecap:square;stroke-linejoin:miter;stroke-miterlimit:4;stroke-dasharray:none;stroke-opacity:1;paint-order:normal"
           id="rect892-1"
           width="2.9200215"
           height="41.437584"
           x="-684.76074"
           y="1132.5303"
           transform="matrix(-0.62961158,0.77691007,0.65434208,0.75619868,0,0)" />
        <rect
           transform="matrix(-0.65516628,-0.75548471,-0.62877406,0.77758805,0,0)"
           y="-703.56848"
           x="-1155.4326"
           height="41.684681"
           width="2.9027057"
           id="rect909"
           style="opacity:1;fill:#1f1a17;fill-opacity:1;stroke:#1f1a17;stroke-width:2.22107;stroke-linecap:square;stroke-linejoin:miter;stroke-miterlimit:4;stroke-dasharray:none;stroke-opacity:1;paint-order:normal" />
        <rect
           transform="matrix(0.0023305,0.99999728,0.99999448,-0.00332335,0,0)"
           y="1165.2843"
           x="343.79016"
           height="37.732437"
           width="3.156975"
           id="rect911"
           style="display:inline;opacity:1;fill:#1f1a17;fill-opacity:1;stroke:#1f1a17;stroke-width:2.20377;stroke-linecap:square;stroke-linejoin:miter;stroke-miterlimit:4;stroke-dasharray:none;stroke-opacity:1;paint-order:normal" />
        <rect
           style="opacity:1;fill:#1f1a17;fill-opacity:1;stroke:#1f1a17;stroke-width:2.20377;stroke-linecap:square;stroke-linejoin:miter;stroke-miterlimit:4;stroke-dasharray:none;stroke-opacity:1;paint-order:normal"
           id="rect913"
           width="2.6436777"
           height="45.058598"
           x="-1184.9684"
           y="323.77573"
           transform="matrix(-0.99998924,0.00463819,0.00325253,0.99999471,0,0)" />
      </g>
    </g>
    <path
       style="fill:#ffffff;stroke:none;stroke-width:1.5px;stroke-linecap:butt;stroke-linejoin:miter;stroke-opacity:1"
       d="m 11.706099,19.768474 1.412258,-1.872553 55.282852,20.400544 c 2.731671,3.252536 2.365337,5.472402 2.342942,7.806917 C 70.036655,45.703291 68.477675,39.872784 66.846902,39.320193 43.735847,31.488957 28.996743,24.319702 14.912841,20.277337 13.803813,19.959024 12.800691,20.067288 11.706099,19.768474 Z"
       id="path7002"
       inkscape:connector-curvature="0"
       sodipodi:nodetypes="ccccssc" />
    <path
       style="display:inline;fill:#ffffff;stroke:none;stroke-width:1.5px;stroke-linecap:butt;stroke-linejoin:miter;stroke-opacity:1"
       d="m 53.913951,44.424321 h 4.790784 l 3.575213,5.434321 c -1.525424,-1.048728 -3.529389,-3.25803 -4.361759,-4.07574 -3.289059,-0.684847 -5.770383,-0.123285 -8.723517,-1.644598 z"
       id="path7004"
       inkscape:connector-curvature="0"
       sodipodi:nodetypes="cccccc" />
  </g>
</svg>
